!!!OTL@@FUR: No ti vessio mai viodude
!!!OTL@IT: Non ti avessi mai vista
!!!OTL@EN: If I had never seen you
**kern
*clefG2
*k[f#]
*G:
*M3/4
*MM55
*>[A]
=1
*>A
8b
8b
8b
8a
8cc
8b
=2
4a
4a
4r
=3
8dd
8dd
8dd
8cc
8ee
8dd
=4
4b
4b
4r
=5
8b
8b
8b
8a
8cc
8b
=6
4a
4a
4r
=7
8dd
8dd
8dd
8cc
8ee
8dd
=8
2.b
==
*-
!!!ARE: Friuli
!!!ENC: Kelly Leistikow
!!!END: 2002/03/07
!!!ref: @{OTL@@FUR}/@{OTL@EN}
